X: 100359
T: SUNBEAM POLKA
C: A. ANDERSON
R: polka, reel
B: K\"ohler's Violin Repository, v.3, 1885 p.241 #2
F: http://www.archive.org/details/klersviolinrepos03rugg
Z: 2012 John Chambers <jc:trillian.mit.edu>
M: 2/4
L: 1/16
K: C
|:\
!p!vE2E2 EGce | e2c2 (.G3.c) | (Bc)de fedc | Bcdc BAGF | E2E2 EGce |
e2c2 (.G3.c) | (Bc)de fGAB | c2e2c2z2 :| vdcBA GFEF | G2d2 (.d3.e) | f2A2 (.A3.B) |
c2e2 (.G3.c) | (dc)BA GFEF | G2d2 (.d3.e) | (fe)dc Bcde | c2c2c2z2 "^D.C.":|
P: Trio
|:\
vE4 E(GcG) | e6 e2 | fcA2 (.A3.c) | dBG2 G4 |\
E4- E(GcG) | e6 e2 | fcA2 (.B3.d) | d2c2c2z2 "^D.C.":|
%%text pp 1st, ff 2nd time.

%%sep 2 1 500

